src/assets/vl.svg

<svg width="130" height="128" viewBox="0 0 130 128" fill="none" xmlns="http://www.w3.org/2000/svg">
<circle cx="64" cy="64" r="64" fill="#0071E3"/>
<path d="M14.209 78.2324L20.4492 53.3008H30.8496L20.4785 85H14.3262L14.209 78.2324ZM10.5176 53.3008L16.6699 78.2324L16.6113 85H10.4297L0.0878906 53.3008H10.5176ZM62.4316 77.0898V85H40.8691V77.0898H62.4316ZM44.5312 42.3438V85H34.248V42.3438H44.5312ZM94.4238 56.2305V63.8477H67.2656V56.2305H94.4238ZM94.4238 69.0918V76.709H67.2656V69.0918H94.4238ZM117.158 71.4941H108.75C108.75 69.7754 108.867 68.2617 109.102 66.9531C109.355 65.625 109.785 64.4336 110.391 63.3789C110.996 62.3242 111.816 61.3477 112.852 60.4492C113.77 59.6875 114.561 58.9551 115.225 58.252C115.889 57.5488 116.396 56.8359 116.748 56.1133C117.1 55.3906 117.275 54.6191 117.275 53.7988C117.275 52.7832 117.129 51.9531 116.836 51.3086C116.562 50.6641 116.143 50.1855 115.576 49.873C115.029 49.541 114.336 49.375 113.496 49.375C112.812 49.375 112.168 49.541 111.562 49.873C110.977 50.2051 110.498 50.7227 110.127 51.4258C109.756 52.1094 109.551 53.0176 109.512 54.1504H99.5801C99.6387 51.2402 100.283 48.877 101.514 47.0605C102.764 45.2246 104.424 43.8867 106.494 43.0469C108.584 42.1875 110.918 41.7578 113.496 41.7578C116.348 41.7578 118.799 42.1973 120.85 43.0762C122.9 43.9551 124.473 45.2637 125.566 47.002C126.66 48.7207 127.207 50.8398 127.207 53.3594C127.207 55.0391 126.885 56.5039 126.24 57.7539C125.615 58.9844 124.766 60.1367 123.691 61.2109C122.637 62.2656 121.455 63.3984 120.146 64.6094C119.014 65.6055 118.242 66.6211 117.832 67.6562C117.422 68.6719 117.197 69.9512 117.158 71.4941ZM107.549 80.4004C107.549 78.9941 108.057 77.8223 109.072 76.8848C110.088 75.9277 111.406 75.4492 113.027 75.4492C114.648 75.4492 115.967 75.9277 116.982 76.8848C117.998 77.8223 118.506 78.9941 118.506 80.4004C118.506 81.8066 117.998 82.9883 116.982 83.9453C115.967 84.8828 114.648 85.3516 113.027 85.3516C111.406 85.3516 110.088 84.8828 109.072 83.9453C108.057 82.9883 107.549 81.8066 107.549 80.4004Z" fill="white"/>
</svg>

<svg width="130" height="128" fill="none" xmlns="http://www.w3.org/2000/svg"><circle cx="64" cy="64" r="64" fill="#0071E3"/><path d="m14.209 78.232 6.24-24.931h10.4L20.48 85h-6.153l-.117-6.768Zm-3.691-24.931 6.152 24.931L16.61 85H10.43L.088 53.3h10.43ZM62.432 77.09V85H40.869v-7.91h21.563Zm-17.9-34.746V85H34.247V42.344h10.283ZM94.423 56.23v7.618H67.266V56.23h27.158Zm0 12.862v7.617H67.266v-7.617h27.158Zm22.734 2.402h-8.408c0-1.719.117-3.232.352-4.54.253-1.329.683-2.52 1.289-3.575.605-1.055 1.425-2.031 2.461-2.93a26.857 26.857 0 0 0 2.373-2.197c.664-.703 1.171-1.416 1.523-2.139a5.216 5.216 0 0 0 .527-2.314c0-1.016-.146-1.846-.439-2.49-.274-.645-.693-1.123-1.26-1.436-.547-.332-1.24-.498-2.08-.498-.684 0-1.328.166-1.934.498-.585.332-1.064.85-1.435 1.553-.371.683-.576 1.592-.615 2.724H99.58c.059-2.91.703-5.273 1.934-7.09 1.25-1.835 2.91-3.173 4.98-4.013 2.09-.86 4.424-1.29 7.002-1.29 2.852 0 5.303.44 7.354 1.32 2.05.878 3.623 2.187 4.716 3.925 1.094 1.719 1.641 3.838 1.641 6.357 0 1.68-.322 3.145-.967 4.395-.625 1.23-1.474 2.383-2.549 3.457a126.077 126.077 0 0 1-3.545 3.398c-1.132.997-1.904 2.012-2.314 3.047-.41 1.016-.635 2.295-.674 3.838Zm-9.609 8.906c0-1.406.508-2.578 1.523-3.515 1.016-.957 2.334-1.436 3.955-1.436s2.94.479 3.955 1.436c1.016.937 1.524 2.11 1.524 3.515 0 1.407-.508 2.588-1.524 3.545-1.015.938-2.334 1.407-3.955 1.407s-2.939-.47-3.955-1.407c-1.015-.957-1.523-2.138-1.523-3.545Z" fill="#fff"/></svg>
